X:1
T:nvrtita din Luna-Turda
O:Romania
A:Luna-Turda (near Cluj in Transylvania)
S:Susan Worland
C:Trad.
Z:http://swiss.csail.mit.edu/~jaffer/Music
%%titlespace 0.0cm
R:Invirtita
M:7/8
L:1/8
Q:2/8=180
K:D
%%MIDI channel 1
%%MIDI program 1 15
%%MIDI chordprog 42
%%MIDI chordvol 40
%%MIDI bassprog 43
%%MIDI bassvol 50
%%MIDI gchord f3czc2
|:"D"aba ag gf | f2d e2 ed |"G"g2f ga fd |"A" e2d cB A2 |
  "D"aba ag gf | f2d e2 ed |"G"d/2d/2dd "A"df ec | "D"d3-d2 z2 :|
|:"D"df2 a2 g2 | f2d e2 ed |"G"g2f ga fd |"A" e2d cB A2 |
  "D"df2 a2 g2 | f2d e2 ed |"G"d/2d/2dd "A"df ec | "D"d3-d2 z2 :|
%X:2
T:Fecuresc Fecuresc
%O:Romania
%C:Trad.
%S:Susan Worland
%%titlespace 0.0cm
%R:Invirtita
Q:4/16=120
M:10/16
L:1/16
K:D
%%MIDI channel 1
%%MIDI program 1 15
%%MIDI chordprog 42
%%MIDI chordvol 40
%%MIDI bassprog 43
%%MIDI bassvol 50
%%MIDI gchord f3czc2
 "D"(^gafd) ((2Ad f3) |(^gafd) (A2d e2f) |"A"(gfeg) (f2d e2c) |"D" (def^g) (a2g a3) |
 "D"(^gafd) ((2Ad f3) |(^gafd) (A2d e2f) |"A"(gfeg) (f2d e2c) |"D" d2z2 z6 :|
|:"G"(cdef) (g3- g2f) |(gagf) (e2d e2f) |(3g2(g2f2) (g2a) (g2f) |"A" (e3d) (c2B) A3 |
  "G"(d2ef) (g3- g2f) |(gagf) (e3 a3) |"A"(^gaba) (g2a b2c') |"D" d'2 z2 z6 :|
|:"D"(f^gab) (c'2g a3) |(b^gac') (b2c' a3) |"A"(bagf) (e2d A2c) |"D" (def^g) (a2g a3) |
  "D"(f^gab) (c'2g a3) |(b^gac') (b2c' a3) |"A"(bagf) (e2d A2c) |"D" d2z2 z6 :|
|:"D"(Acde) (f2c d3) |(Acde) (f2c d3) |"G"(3g2(g2f2) (g2a) (g2f) |"A"(e3d) c2B A3 |
  "D"(Acde) (f2c d3) |(Acde) (f2c d3) |"A"(3a2(a2e2) (f2^g a2c) |"D"d2 z2 z6 :|
W:Arrangement Copyright (C) 2002 Voluntocracy.
W:Permission is granted to copy and distribute modified or unmodified versions of this music
W:provided the copyright notice and this permission notice are preserved on all copies and the
W:entire such work is distributed under the terms of a permission notice identical to this one.
